svg/sports_tennis.svg

<svg xmlns="http://www.w3.org/2000/svg" viewBox="0 0 24 24"><path fill="none" d="M0 0h24v24H0z"/><path d="M19.52 2.49C17.18.15 12.9.62 9.97 3.55c-1.6 1.6-2.52 3.87-2.54 5.46-.02 1.58.26 3.89-1.35 5.5l-4.24 4.24 1.42 1.42 4.24-4.24c1.61-1.61 3.92-1.33 5.5-1.35s3.86-.94 5.46-2.54c2.92-2.93 3.4-7.21 1.06-9.55m-9.2 9.19c-1.53-1.53-1.05-4.61 1.06-6.72s5.18-2.59 6.72-1.06c1.53 1.53 1.05 4.61-1.06 6.72s-5.18 2.59-6.72 1.06M18 17c.53 0 1.04.21 1.41.59.78.78.78 2.05 0 2.83-.37.37-.88.58-1.41.58s-1.04-.21-1.41-.59c-.78-.78-.78-2.05 0-2.83.37-.37.88-.58 1.41-.58m0-2a3.998 3.998 0 0 0-2.83 6.83c.78.78 1.81 1.17 2.83 1.17a3.998 3.998 0 0 0 2.83-6.83A4 4 0 0 0 18 15"/></svg>

<svg xmlns="http://www.w3.org/2000/svg" enable-background="new 0 0 24 24" height="24" viewBox="0 0 24 24" width="24"><g><rect fill="none" height="24" width="24"/></g><g><path d="M19.52,2.49c-2.34-2.34-6.62-1.87-9.55,1.06c-1.6,1.6-2.52,3.87-2.54,5.46c-0.02,1.58,0.26,3.89-1.35,5.5l-4.24,4.24 l1.42,1.42l4.24-4.24c1.61-1.61,3.92-1.33,5.5-1.35s3.86-0.94,5.46-2.54C21.38,9.11,21.86,4.83,19.52,2.49z M10.32,11.68 c-1.53-1.53-1.05-4.61,1.06-6.72s5.18-2.59,6.72-1.06c1.53,1.53,1.05,4.61-1.06,6.72S11.86,13.21,10.32,11.68z"/><path d="M18,17c0.53,0,1.04,0.21,1.41,0.59c0.78,0.78,0.78,2.05,0,2.83C19.04,20.79,18.53,21,18,21s-1.04-0.21-1.41-0.59 c-0.78-0.78-0.78-2.05,0-2.83C16.96,17.21,17.47,17,18,17 M18,15c-1.02,0-2.05,0.39-2.83,1.17c-1.56,1.56-1.56,4.09,0,5.66 C15.95,22.61,16.98,23,18,23s2.05-0.39,2.83-1.17c1.56-1.56,1.56-4.09,0-5.66C20.05,15.39,19.02,15,18,15L18,15z"/></g></svg>
